bps (160/120)


d1 $ (0.125 ~>) $ density 4 $ (|+| note (shift' 234 $ choose [0,-12])) $
    slow 2 $ note "-24" # s "midi" # midichan 2

d2 $ (|+| note "-24") $ slow 2 $  note "0 [~ 2] ~ -3 [~ 2] ~ [~ 5]/2 [~ 7]/2" # s "midi" # midichan 0

d3 $ gain "~ 1" # note "-24" # s "midi" # midichan 3

d4 $ gain "1(3,8) ~" # note "-24" # s "midi" # midichan 1

d5 $ density 2 $  gain "~ 1" # note "-24" # s "midi" # midichan 8


hush