bps (140/120)

do
    d1 $ 
        density 2 $ note "[0,4,9,11]" 
        # s "midi" 
        # midichan 15 
        # sustain 0.1        
    d2 $ density 2 $ 
        control "[0 127]/8"
        # ctlNum 3
        # s "midi" 
        # midichan 15 
        # midicmd "control"


    hush
