bps (210/120)

-- k:1, defkit, ss

-- support #1
d1 $ stack [
slow 8 $ sound "defb*4" # n "[0 1 2 2]" # speed "[1 1 1 [1 0.5]/2]",
slow 16 $ sound "gnarl gnarl:1",
slow 2 $ sound "~ ~ defdo defdo:1" ]

-- support #2
d1 $ stack [
slow 8 $ sound "defb*4" # n "[3 4 5 5 3 6 5 5]/2",
slow 16 $ sound "gnarl:2 gnarl:3",
slow 2 $ sound "~ ~ defdo defdo:1" ]



hush
