cps 1

d1 $ (|+| note "-4") $ (|+| note "-36") $ slow 4 $ note "[0 ~ ~ [~ 11/2 ~ ~]]" # s "midi"

hush

bps (150/120)



d1 $ sometimesBy 0.4 (off (shift' 4 $ choose [0.0625,0.125,0.25]) (|+| note (shift' 100 $ choose [0,1]))) $ 
    shift $ (|+| note "-24") $ note "{0 ~ ~}%8" # s "midi" # midichan 1
    

    hush